icons/speaker-decrease.svg

<svg xmlns="http://www.w3.org/2000/svg" width="24" height="24" viewBox="0 0 24 24">
  <path d="M12.7682213,4.49485721 C12.9179838,4.67457221 13,4.90110511 13,5.13504161 L13,18.8649584 C13,19.4172431 12.5522847,19.8649584 12,19.8649584 C11.7660635,19.8649584 11.5395306,19.7829422 11.3598156,19.6331797 L7,16 L4,16 C2.8954305,16 2,15.1045695 2,14 L2,10 C2,8.8954305 2.8954305,8 4,8 L7,8 L11.3598156,4.36682033 C11.7840925,4.01325625 12.4146572,4.07058032 12.7682213,4.49485721 Z M16.4371031,8.70209909 C18.3897246,10.6547205 18.3897246,13.8205454 16.4371031,15.7731669 C16.0465788,16.1636912 15.4134138,16.1636912 15.0228895,15.7731669 C14.6323652,15.3826426 14.6323652,14.7494776 15.0228895,14.3589533 C16.1944624,13.1873805 16.1944624,11.2878855 15.0228895,10.1163127 C14.6323652,9.72578836 14.6323652,9.09262338 15.0228895,8.70209909 C15.4134138,8.3115748 16.0465788,8.3115748 16.4371031,8.70209909 Z"/>
</svg>

<svg xmlns="http://www.w3.org/2000/svg" viewBox="0 0 24 24">
  <path d="M12.77 4.5a1 1 0 0 1 .23.64v13.72a1 1 0 0 1-1.64.77L7 16H4a2 2 0 0 1-2-2v-4c0-1.1.9-2 2-2h3l4.36-3.63a1 1 0 0 1 1.4.12zm3.67 4.2a5 5 0 0 1 0 7.07 1 1 0 0 1-1.42-1.41 3 3 0 0 0 0-4.24 1 1 0 0 1 1.42-1.42z"/>
</svg>
